X: 22092
T: Dr. and Mrs. Green
C: K.Macauley-Jones
R: strathspey
B: RSCDS 22-9
Z: 1997 by John Chambers <jc:trillian.mit.edu>
M: C
L: 1/8
%--------------------
K: D
A \
| "D"d2 f>d "Bm"A<F d2 | "Em"B>A G>F "A7"E>D C<A, \
| "D"d2 f>d "Bm"A<F d2 | "Em"B>G g>e "A7"(3cde (3ABc |
| "D"d2 f>d "Bm"A<F d2 | "Em"G>F E>D "A7"C>B A>G \
| "D"F>A d>c "Em"B<G g>e | "A7"(3cde A<g "D"f<d d ||
f \
|| "Bm"b2f>d "Em"g>e c2 | "Bm"f2 d>B "F#"e/d/c/B/ c2 \
| "Bm"b>c' b>f "Em"g>e B<g | "F#7"f>e d<c "Bm"B2 "A7"c2 |
| "D"d2 f>d "Bm"A<F d2 | "Em"B>c d>e "A7"(3cde (3efg \
| "D"f2 a>f "Em"b>g e>d | "A7"(3cde A>c "D"d2- d |]
%%center Book22/22091-Dr_and_Mrs_Green-2.abc

%%sep 1 1 500
%%sep 1 1 500
